dist/svg/box-line.svg

<svg xmlns="http://www.w3.org/2000/svg" viewBox="0 0 24 24"><path d="M11.589 2.441c-.211.053-.028-.046-3.988 2.173C4.393 6.412 3.996 6.645 3.778 6.86a1.7 1.7 0 0 0-.493.892c-.063.298-.063 8.198 0 8.496.073.348.23.633.492.892.218.215.61.446 3.783 2.228 1.947 1.093 3.648 2.038 3.78 2.1.215.1.284.112.66.112s.445-.012.66-.112c.132-.062 1.833-1.007 3.78-2.1 3.173-1.782 3.565-2.013 3.783-2.228.262-.259.419-.544.492-.892.063-.298.063-8.198 0-8.496a1.7 1.7 0 0 0-.493-.892c-.218-.215-.617-.45-3.823-2.248-1.968-1.104-3.665-2.046-3.771-2.093-.22-.097-.794-.14-1.039-.078m3.666 3.252c1.734.976 3.153 1.789 3.153 1.809.001.041-2.163 1.267-2.207 1.25-.173-.068-6.427-3.619-6.408-3.638C9.892 5.016 11.918 3.92 12 3.92c.06 0 1.395.728 3.255 1.773m-3.794 2.116c1.769.995 3.203 1.822 3.188 1.836-.114.104-2.633 1.478-2.684 1.463-.141-.04-6.384-3.579-6.373-3.612.013-.037 2.562-1.489 2.621-1.494.017-.001 1.479.812 3.248 1.807M8.18 10.713l3.04 1.711.01 3.646.01 3.646-.27-.153-3.17-1.782c-1.595-.897-2.931-1.658-2.97-1.692-.066-.058-.07-.284-.07-3.678V8.795l.19.104c.104.057 1.558.873 3.23 1.814m10.99 5.372c-.038.037-1.375.8-2.97 1.696l-3.17 1.782-.27.153.01-3.646.01-3.646L16 10.613l3.22-1.811.01 3.607c.01 3.396.006 3.612-.06 3.676" fill-rule="evenodd"/></svg>

<svg fill="none" xmlns="http://www.w3.org/2000/svg" viewBox="0 0 24 24"><path d="M11.589 2.441 C 11.378 2.494,11.561 2.395,7.601 4.614 C 4.393 6.412,3.996 6.645,3.778 6.860 C 3.515 7.119,3.358 7.403,3.285 7.752 C 3.222 8.050,3.222 15.950,3.285 16.248 C 3.358 16.596,3.515 16.881,3.777 17.140 C 3.995 17.355,4.387 17.586,7.560 19.368 C 9.507 20.461,11.208 21.406,11.340 21.468 C 11.555 21.568,11.624 21.580,12.000 21.580 C 12.376 21.580,12.445 21.568,12.660 21.468 C 12.792 21.406,14.493 20.461,16.440 19.368 C 19.613 17.586,20.005 17.355,20.223 17.140 C 20.485 16.881,20.642 16.596,20.715 16.248 C 20.778 15.950,20.778 8.050,20.715 7.752 C 20.642 7.403,20.485 7.119,20.222 6.860 C 20.004 6.645,19.605 6.410,16.399 4.612 C 14.431 3.508,12.734 2.566,12.628 2.519 C 12.408 2.422,11.834 2.379,11.589 2.441 M15.255 5.693 C 16.989 6.669,18.408 7.482,18.408 7.502 C 18.409 7.543,16.245 8.769,16.201 8.752 C 16.028 8.684,9.774 5.133,9.793 5.114 C 9.892 5.016,11.918 3.920,12.000 3.920 C 12.060 3.920,13.395 4.648,15.255 5.693 M11.461 7.809 C 13.230 8.804,14.664 9.631,14.649 9.645 C 14.535 9.749,12.016 11.123,11.965 11.108 C 11.824 11.068,5.581 7.529,5.592 7.496 C 5.605 7.459,8.154 6.007,8.213 6.002 C 8.230 6.001,9.692 6.814,11.461 7.809 M8.180 10.713 L 11.220 12.424 11.230 16.070 L 11.240 19.716 10.970 19.563 C 10.822 19.479,9.395 18.677,7.800 17.781 C 6.205 16.884,4.869 16.123,4.830 16.089 C 4.764 16.031,4.760 15.805,4.760 12.411 L 4.760 8.795 4.950 8.899 C 5.054 8.956,6.508 9.772,8.180 10.713 M19.170 16.085 C 19.132 16.122,17.795 16.885,16.200 17.781 C 14.605 18.678,13.178 19.479,13.030 19.563 L 12.760 19.716 12.770 16.070 L 12.780 12.424 16.000 10.613 L 19.220 8.802 19.230 12.409 C 19.240 15.805,19.236 16.021,19.170 16.085 " stroke="none" fill-rule="evenodd" fill="currentColor"/></svg>
